X: 4570
T: Both Sides The Tweed
R: waltz
M: 3/4
K: Aminor
A,B,|C3 B, A,2|C2 D2 E2|(~A6|A3) A3|G3 ED2|E2 D3 E|(B,6|B,2) A,2 B,2|
C3 B, A,2|C2 D2 E2|(~A6|A3) A3|G2 E2 C2|D2 B,2 G,2|1 (A,6|A,4):|2 (A,6|A,6)||
|:A6|A4 GE|G6|G4 ED|E4 E2|E2 D2 E2|(B,6|B,2) A,2 B,2|
C3 B, A,2|C2 D2 E2|~A6|A4 A2|G2 E2 C2|D2 B,2 G,2|(A,6|A,6):|

